X: 4
T: The Laurel Tree
R: reel
M: 4/4
L: 1/8
K: Ador
eA ~A2 e2ed|BG~G2 Bcdg|eA ~A2 e2dc|BGdG BAA2|eA ~A2 e2dc|BG~G2 BcdB|e3f gbag|gedB BAA2:|eaag e2dc|BG~G2 Bcdf|ea~a2 a2ga|bagb a3g|eaag e2dc|BG~G2 BcdB|e3f gbag|gedB BAA2:|


Tune 883	Setting 14065

